X:13
T:Buffalo Gals
T: John Hodges
R: Reel
M:4/4
L:1/4
K:G
D|:"G"GA Bc|"G"ed B3/2B/2|"D7"dc Ac|"C"ed "D7"d/2c/2B/2A/2|"G"GA Bc|
|"G"ed B3/2g/2|"C"fe "D7"cA|"G"G2 "D7"d2|"C"gf ef|"G"ed d3/2e/2|"D7"dc Ac|
|"G"ed de/2f/2|"C"gf ef|"G"ed d3/2e/2|"D7"dc AF|"G"G2D2:|


